resources/svg/regular/list-check.svg

<svg xmlns="http://www.w3.org/2000/svg" fill="currentColor" stroke="none" viewBox="0 0 24 24"><path d="M4 7h11v2H4zm0 4h11v2H4zm0 4h7v2H4zm15.299-2.708-4.3 4.291-1.292-1.291-1.414 1.415 2.706 2.704 5.712-5.703z"/></svg>

<svg xmlns="http://www.w3.org/2000/svg" fill="currentColor" stroke="none" viewBox="0 0 24 24"><path d="M4 7H15V9H4zM4 11H15V13H4zM4 15H11V17H4zM19.299 12.292L14.999 16.583 13.707 15.292 12.293 16.707 14.999 19.411 20.711 13.708z"/></svg>
